azure-patterns/svg-transfer-right-arrow.svg

<svg xmlns="http://www.w3.org/2000/svg" viewBox="0 0 49 49">
                                
                            
    <path d="M48.1877 1.00391H0.296875V6.04151H48.1877V1.00391Z" fill="#50E6FF"></path>
    <path d="M48.1877 5.96094H0.296875V23.6094H48.1877V5.96094Z" fill="#0078D4"></path>
    <path d="M10.3805 26.0742H0.296875V36.1578H10.3805V26.0742Z" fill="#0078D4"></path>
    <path d="M22.986 26.0742H12.9023V36.1578H22.986V26.0742Z" fill="#0078D4"></path>
    <path d="M35.5875 26.0742H25.5039V36.1578H35.5875V26.0742V26.0742Z" fill="#50E6FF"></path>
    <path d="M48.1924 26.0742H38.1172V36.1578H48.2008V26.0742H48.1924Z" fill="#50E6FF"></path>
    <path d="M22.9829 38.6797H0.296875V48.7633H22.9829V38.6797V38.6797Z" fill="#0078D4"></path>
    <path d="M48.1899 38.6797H25.5039V48.7549H48.1899V38.6797Z" fill="#50E6FF"></path>
    <path d="M41.8339 14.6406L35.5957 8.40234V12.592H6.45312V17.025H35.5957V20.8788L41.8339 14.6406Z" fill="#50E6FF"></path>
</svg>

<svg xmlns="http://www.w3.org/2000/svg" viewBox="0 0 49 49"><path d="M48.188 1.004H.297v5.038h47.89V1.004z" fill="#50E6FF"/><path d="M48.188 5.96H.297v17.65h47.89V5.96zM10.38 26.074H.297v10.084H10.38V26.074zM22.986 26.074H12.902v10.084h10.084V26.074z" fill="#0078D4"/><path d="M35.587 26.074H25.505v10.084h10.083V26.074zM48.192 26.074H38.117v10.084h10.084V26.074h-.009z" fill="#50E6FF"/><path d="M22.983 38.68H.297v10.083h22.686V38.68z" fill="#0078D4"/><path d="M48.19 38.68H25.504v10.075H48.19V38.68zM41.834 14.64l-6.238-6.238v4.19H6.453v4.433h29.143v3.854l6.238-6.238z" fill="#50E6FF"/></svg>
